svg/animations/wait7.svg

<?xml version="1.0" encoding="UTF-8" standalone="no"?>
<svg
   width="24"
   height="24"
   viewBox="0 0 24 24"
   id="svg2"
   version="1.1"
   inkscape:version="1.2 (dc2aedaf03, 2022-05-15)"
   sodipodi:docname="wait7.svg"
   inkscape:export-filename="/home/shka/test.png"
   inkscape:export-xdpi="96"
   inkscape:export-ydpi="96"
   xmlns:inkscape="http://www.inkscape.org/namespaces/inkscape"
   xmlns:sodipodi="http://sodipodi.sourceforge.net/DTD/sodipodi-0.dtd"
   xmlns="http://www.w3.org/2000/svg"
   xmlns:svg="http://www.w3.org/2000/svg"
   xmlns:rdf="http://www.w3.org/1999/02/22-rdf-syntax-ns#"
   xmlns:cc="http://creativecommons.org/ns#"
   xmlns:dc="http://purl.org/dc/elements/1.1/">
  <defs
     id="defs4" />
  <sodipodi:namedview
     id="base"
     pagecolor="#ffffff"
     bordercolor="#666666"
     borderopacity="1.0"
     inkscape:pageopacity="0.0"
     inkscape:pageshadow="2"
     inkscape:zoom="32.000001"
     inkscape:cx="8.4062497"
     inkscape:cy="11.734375"
     inkscape:document-units="px"
     inkscape:current-layer="g3692"
     showgrid="true"
     units="px"
     inkscape:snap-bbox="true"
     inkscape:snap-global="true"
     inkscape:snap-bbox-midpoints="false"
     inkscape:snap-bbox-edge-midpoints="false"
     inkscape:bbox-nodes="true"
     inkscape:bbox-paths="true"
     inkscape:snap-grids="true"
     inkscape:window-width="3840"
     inkscape:window-height="2111"
     inkscape:window-x="0"
     inkscape:window-y="0"
     inkscape:window-maximized="1"
     showguides="true"
     inkscape:snap-intersection-paths="false"
     inkscape:object-nodes="false"
     inkscape:snap-object-midpoints="false"
     inkscape:snap-center="true"
     inkscape:snap-midpoints="false"
     inkscape:snap-smooth-nodes="false"
     inkscape:object-paths="false"
     inkscape:snap-text-baseline="false"
     inkscape:snap-nodes="true"
     inkscape:snap-others="true"
     inkscape:document-rotation="0"
     inkscape:pagecheckerboard="0"
     inkscape:guide-bbox="true"
     inkscape:showpageshadow="2"
     inkscape:deskcolor="#d1d1d1">
    <inkscape:grid
       type="xygrid"
       id="grid4138" />
    <sodipodi:guide
       position="15.000009,18.999984"
       orientation="1,0"
       id="guide2122"
       inkscape:locked="false" />
    <sodipodi:guide
       position="15.000009,18.999984"
       orientation="0,-1"
       id="guide2124"
       inkscape:locked="false" />
    <sodipodi:guide
       position="15.000009,25"
       orientation="0,-1"
       id="guide2400"
       inkscape:locked="false" />
    <sodipodi:guide
       position="15.000009,13"
       orientation="0,-1"
       id="guide2402"
       inkscape:locked="false" />
  </sodipodi:namedview>
  <metadata
     id="metadata7">
    <rdf:RDF>
      <cc:Work
         rdf:about="">
        <dc:format>image/svg+xml</dc:format>
        <dc:type
           rdf:resource="http://purl.org/dc/dcmitype/StillImage" />
      </cc:Work>
    </rdf:RDF>
  </metadata>
  <g
     inkscape:label="Layer 1"
     inkscape:groupmode="layer"
     id="layer1"
     transform="translate(0,-1018.3622)">
    <g
       transform="translate(18.786846,15.955318)"
       id="g6182" />
    <g
       id="g3692"
       inkscape:transform-center-x="-6.0651294"
       inkscape:transform-center-y="8.7857892"
       transform="rotate(-22.327549,4,1021.3622)">
      <g
         id="g1152"
         transform="translate(-0.54505883,-1.3047669)">
        <ellipse
           style="fill:#f57900;fill-opacity:1;stroke-width:0;stroke-linejoin:round;stroke-opacity:0.85;paint-order:markers stroke fill"
           id="circle1383"
           cx="402.71661"
           cy="955.26819"
           transform="rotate(22.327549)"
           rx="7"
           ry="7.0000162" />
        <path
           id="circle1519"
           style="fill:#000000;fill-opacity:0.401999;stroke-width:0;stroke-linejoin:round;stroke-opacity:0.85;paint-order:markers stroke fill"
           d="m 15,8 a 7.0000162,7.0000162 0 0 0 -7,7 7.0000162,7.0000162 0 0 0 7,7 7.0000162,7.0000162 0 0 0 7,-7 7.0000162,7.0000162 0 0 0 -7,-7 z m 0,1 a 6.0000162,6.0000162 0 0 1 6,6 6.0000162,6.0000162 0 0 1 -6,6 6.0000162,6.0000162 0 0 1 -6,-6 6.0000162,6.0000162 0 0 1 6,-6 z"
           transform="rotate(22.327549,-2576.113,512.1811)" />
        <g
           id="g1550"
           transform="rotate(-90,9.6164234,1036.6414)">
          <ellipse
             style="fill:#ffffff;fill-opacity:1;stroke:#000000;stroke-width:0;stroke-linejoin:round;stroke-opacity:0.85;paint-order:markers stroke fill"
             id="ellipse2120"
             cx="402.71661"
             cy="951.76819"
             transform="rotate(22.327549)"
             rx="0.99999928"
             ry="2.4999902" />
          <ellipse
             style="fill:#ffffff;fill-opacity:0.6;stroke:#000000;stroke-width:0;stroke-linejoin:round;stroke-opacity:0.85;paint-order:markers stroke fill"
             id="ellipse1402"
             cx="402.71661"
             cy="958.76819"
             transform="rotate(22.327549)"
             rx="0.99999928"
             ry="2.4999902" />
          <ellipse
             style="fill:#ffffff;fill-opacity:0.4;stroke:#000000;stroke-width:0;stroke-linejoin:round;stroke-opacity:0.85;paint-order:markers stroke fill"
             id="ellipse1404"
             cx="955.26819"
             cy="-406.21661"
             transform="rotate(112.32755)"
             rx="0.99999928"
             ry="2.4999902" />
          <ellipse
             style="fill:#ffffff;fill-opacity:0.8;stroke:#000000;stroke-width:0;stroke-linejoin:round;stroke-opacity:0.85;paint-order:markers stroke fill"
             id="ellipse1406"
             cx="955.26819"
             cy="-399.21661"
             transform="rotate(112.32755)"
             rx="0.99999928"
             ry="2.4999902" />
          <ellipse
             style="fill:#ffffff;fill-opacity:0.3;stroke:#000000;stroke-width:0;stroke-linejoin:round;stroke-opacity:0.85;paint-order:markers stroke fill"
             id="ellipse1408"
             cx="960.24023"
             cy="387.21295"
             transform="rotate(67.32755)"
             rx="0.99999928"
             ry="2.4999902" />
          <ellipse
             style="fill:#ffffff;fill-opacity:0.7;stroke:#000000;stroke-width:0;stroke-linejoin:round;stroke-opacity:0.85;paint-order:markers stroke fill"
             id="ellipse1410"
             cx="960.24023"
             cy="394.21295"
             transform="rotate(67.32755)"
             rx="0.99999928"
             ry="2.4999902" />
          <ellipse
             style="fill:#ffffff;fill-opacity:0.5;stroke:#000000;stroke-width:0;stroke-linejoin:round;stroke-opacity:0.85;paint-order:markers stroke fill"
             id="ellipse1412"
             cx="390.71295"
             cy="-963.74023"
             transform="rotate(157.32755)"
             rx="0.99999928"
             ry="2.4999902" />
          <ellipse
             style="fill:#ffffff;fill-opacity:0.9;stroke:#000000;stroke-width:0;stroke-linejoin:round;stroke-opacity:0.85;paint-order:markers stroke fill"
             id="ellipse1414"
             cx="390.71295"
             cy="-956.74023"
             transform="rotate(157.32755)"
             rx="0.99999928"
             ry="2.4999902" />
        </g>
        <g
           id="g2074"
           transform="translate(-6.7615994e-5,-1.5992435e-4)">
          <path
             id="path1363"
             style="fill:#ffffff;fill-opacity:1;stroke:#000000;stroke-width:2;stroke-linecap:round;stroke-linejoin:round;stroke-miterlimit:4;stroke-dasharray:none;stroke-opacity:0.85"
             d="m 2,2 4.7441406,9.486328 A 8.9999838,8.9999838 0 0 1 11.486328,6.7441406 Z"
             transform="rotate(22.327549,-2576.113,512.1811)" />
          <path
             id="path5105"
             style="fill:#ffffff;fill-opacity:1;stroke:none;stroke-width:2;stroke-linecap:round;stroke-linejoin:round;stroke-miterlimit:4;stroke-dasharray:none;stroke-opacity:1"
             d="m 2,2 4.7441406,9.486328 A 8.9999838,8.9999838 0 0 1 11.486328,6.7441406 Z"
             transform="rotate(22.327549,-2576.113,512.1811)" />
        </g>
      </g>
    </g>
  </g>
</svg>

<?xml version="1.0" encoding="UTF-8" standalone="no"?>
<svg
   width="24"
   height="24"
   viewBox="0 0 24 24"
   id="svg2"
   version="1.1"
   inkscape:version="1.1.2 (0a00cf5339, 2022-02-04, custom)"
   sodipodi:docname="wait7.svg"
   inkscape:export-filename="/home/shka/test.png"
   inkscape:export-xdpi="96"
   inkscape:export-ydpi="96"
   xmlns:inkscape="http://www.inkscape.org/namespaces/inkscape"
   xmlns:sodipodi="http://sodipodi.sourceforge.net/DTD/sodipodi-0.dtd"
   xmlns="http://www.w3.org/2000/svg"
   xmlns:svg="http://www.w3.org/2000/svg"
   xmlns:rdf="http://www.w3.org/1999/02/22-rdf-syntax-ns#"
   xmlns:cc="http://creativecommons.org/ns#"
   xmlns:dc="http://purl.org/dc/elements/1.1/">
  <defs
     id="defs4" />
  <sodipodi:namedview
     id="base"
     pagecolor="#ffffff"
     bordercolor="#666666"
     borderopacity="1.0"
     inkscape:pageopacity="0.0"
     inkscape:pageshadow="2"
     inkscape:zoom="32.000001"
     inkscape:cx="8.4218746"
     inkscape:cy="11.734374"
     inkscape:document-units="px"
     inkscape:current-layer="g1152"
     showgrid="true"
     units="px"
     inkscape:snap-bbox="true"
     inkscape:snap-global="true"
     inkscape:snap-bbox-midpoints="false"
     inkscape:snap-bbox-edge-midpoints="false"
     inkscape:bbox-nodes="true"
     inkscape:bbox-paths="true"
     inkscape:snap-grids="true"
     inkscape:window-width="1920"
     inkscape:window-height="1171"
     inkscape:window-x="0"
     inkscape:window-y="0"
     inkscape:window-maximized="1"
     showguides="true"
     inkscape:snap-intersection-paths="false"
     inkscape:object-nodes="false"
     inkscape:snap-object-midpoints="false"
     inkscape:snap-center="true"
     inkscape:snap-midpoints="false"
     inkscape:snap-smooth-nodes="false"
     inkscape:object-paths="false"
     inkscape:snap-text-baseline="false"
     inkscape:snap-nodes="true"
     inkscape:snap-others="true"
     inkscape:document-rotation="0"
     inkscape:pagecheckerboard="0"
     inkscape:guide-bbox="true">
    <inkscape:grid
       type="xygrid"
       id="grid4138" />
    <sodipodi:guide
       position="15.000009,18.999984"
       orientation="1,0"
       id="guide2122" />
    <sodipodi:guide
       position="15.000009,18.999984"
       orientation="0,-1"
       id="guide2124" />
    <sodipodi:guide
       position="15.000009,25"
       orientation="0,-1"
       id="guide2400" />
    <sodipodi:guide
       position="15.000009,13"
       orientation="0,-1"
       id="guide2402" />
  </sodipodi:namedview>
  <metadata
     id="metadata7">
    <rdf:RDF>
      <cc:Work
         rdf:about="">
        <dc:format>image/svg+xml</dc:format>
        <dc:type
           rdf:resource="http://purl.org/dc/dcmitype/StillImage" />
      </cc:Work>
    </rdf:RDF>
  </metadata>
  <g
     inkscape:label="Layer 1"
     inkscape:groupmode="layer"
     id="layer1"
     transform="translate(0,-1018.3622)">
    <g
       transform="translate(18.786846,15.955318)"
       id="g6182" />
    <g
       id="g3692"
       inkscape:transform-center-x="-6.0651294"
       inkscape:transform-center-y="8.7857892"
       transform="rotate(-22.327549,4,1021.3622)">
      <g
         id="g1152">
        <ellipse
           style="fill:#f57900;fill-opacity:1;stroke-width:0;stroke-linejoin:round;stroke-opacity:0.85;paint-order:markers stroke fill"
           id="circle1383"
           cx="402.71661"
           cy="955.26819"
           transform="rotate(22.327549)"
           rx="7"
           ry="7.0000162" />
        <path
           id="circle1519"
           style="fill:#000000;fill-opacity:0.40199938;stroke-width:0;stroke-linejoin:round;stroke-opacity:0.85;paint-order:markers stroke fill"
           d="M 15 8 A 7.0000162 7.0000162 0 0 0 8 15 A 7.0000162 7.0000162 0 0 0 15 22 A 7.0000162 7.0000162 0 0 0 22 15 A 7.0000162 7.0000162 0 0 0 15 8 z M 15 9 A 6.0000162 6.0000162 0 0 1 21 15 A 6.0000162 6.0000162 0 0 1 15 21 A 6.0000162 6.0000162 0 0 1 9 15 A 6.0000162 6.0000162 0 0 1 15 9 z "
           transform="rotate(22.327549,-2576.113,512.1811)" />
        <g
           id="g1550"
           transform="rotate(-90,9.6164234,1036.6414)">
          <ellipse
             style="fill:#ffffff;fill-opacity:1;stroke:#000000;stroke-width:0;stroke-linejoin:round;stroke-opacity:0.85;paint-order:markers stroke fill"
             id="ellipse2120"
             cx="402.71661"
             cy="951.76819"
             transform="rotate(22.327549)"
             rx="0.99999928"
             ry="2.4999902" />
          <ellipse
             style="fill:#ffffff;fill-opacity:0.6;stroke:#000000;stroke-width:0;stroke-linejoin:round;stroke-opacity:0.85;paint-order:markers stroke fill"
             id="ellipse1402"
             cx="402.71661"
             cy="958.76819"
             transform="rotate(22.327549)"
             rx="0.99999928"
             ry="2.4999902" />
          <ellipse
             style="fill:#ffffff;fill-opacity:0.4;stroke:#000000;stroke-width:0;stroke-linejoin:round;stroke-opacity:0.85;paint-order:markers stroke fill"
             id="ellipse1404"
             cx="955.26819"
             cy="-406.21661"
             transform="rotate(112.32755)"
             rx="0.99999928"
             ry="2.4999902" />
          <ellipse
             style="fill:#ffffff;fill-opacity:0.8;stroke:#000000;stroke-width:0;stroke-linejoin:round;stroke-opacity:0.85;paint-order:markers stroke fill"
             id="ellipse1406"
             cx="955.26819"
             cy="-399.21661"
             transform="rotate(112.32755)"
             rx="0.99999928"
             ry="2.4999902" />
          <ellipse
             style="fill:#ffffff;fill-opacity:0.3;stroke:#000000;stroke-width:0;stroke-linejoin:round;stroke-opacity:0.85;paint-order:markers stroke fill"
             id="ellipse1408"
             cx="960.24023"
             cy="387.21295"
             transform="rotate(67.32755)"
             rx="0.99999928"
             ry="2.4999902" />
          <ellipse
             style="fill:#ffffff;fill-opacity:0.7;stroke:#000000;stroke-width:0;stroke-linejoin:round;stroke-opacity:0.85;paint-order:markers stroke fill"
             id="ellipse1410"
             cx="960.24023"
             cy="394.21295"
             transform="rotate(67.32755)"
             rx="0.99999928"
             ry="2.4999902" />
          <ellipse
             style="fill:#ffffff;fill-opacity:0.5;stroke:#000000;stroke-width:0;stroke-linejoin:round;stroke-opacity:0.85;paint-order:markers stroke fill"
             id="ellipse1412"
             cx="390.71295"
             cy="-963.74023"
             transform="rotate(157.32755)"
             rx="0.99999928"
             ry="2.4999902" />
          <ellipse
             style="fill:#ffffff;fill-opacity:0.9;stroke:#000000;stroke-width:0;stroke-linejoin:round;stroke-opacity:0.85;paint-order:markers stroke fill"
             id="ellipse1414"
             cx="390.71295"
             cy="-956.74023"
             transform="rotate(157.32755)"
             rx="0.99999928"
             ry="2.4999902" />
        </g>
        <g
           id="g2074"
           transform="translate(-6.7615994e-5,-1.5992435e-4)">
          <path
             id="path1363"
             style="fill:#ffffff;fill-opacity:1;stroke:#000000;stroke-width:2;stroke-linecap:round;stroke-linejoin:round;stroke-miterlimit:4;stroke-dasharray:none;stroke-opacity:0.85000002"
             d="m 2,2 4.7441406,9.486328 A 8.9999838,8.9999838 0 0 1 11.486328,6.7441406 Z"
             transform="rotate(22.327549,-2576.113,512.1811)" />
          <path
             id="path5105"
             style="fill:#ffffff;fill-opacity:1;stroke:none;stroke-width:2;stroke-linecap:round;stroke-linejoin:round;stroke-miterlimit:4;stroke-dasharray:none;stroke-opacity:1"
             d="m 2,2 4.7441406,9.486328 A 8.9999838,8.9999838 0 0 1 11.486328,6.7441406 Z"
             transform="rotate(22.327549,-2576.113,512.1811)" />
        </g>
      </g>
    </g>
  </g>
</svg>
